X:1
T:Waiting for the King
T:Waiting for the King
T:Bentley DeForest Ackley
T:Alfred Henry Ackley, 1913
T:Public Domain Courtesy of the Cyber Hymnal™
T:Public Domain Courtesy of the Cyber Hymnal™
C:Bentley DeForest Ackley
Z:Public Domain
Z:Courtesy of the Cyber Hymnal™
%%score ( 1 2 ) ( 3 4 )
L:1/8
Q:1/4=95
M:4/4
K:Bb
V:1 treble 
V:2 treble 
V:3 bass 
V:4 bass 
V:1
 [B,D]>[CE] | [DF]>[^C=E] [DF]>[_EG] [DF]2 [Fd]>[^F^c] | [GB]>[^FA] [GB]>[Gc] [GB]2 [=FA]>[EG] | %3
w: 1.~I am|wait- ing for the hour When the|King in all His power, With a|
w: 2.~Thro’ the|spa- cious hills of time An- gels|sing their songs sub- lime, Till the|
w: 3.~In a|mo- ment changed com- plete, Lift- ed|to a land re- plete With His|
 [DF]>[^C=E] [DF]>[FB] [EB]>[EG] [EA]>[EB] | [Ec]6 [B,D]>[CE] | %5
w: migh- ty shout from Hea- ven Shall des-|cend: Those who|
w: rocks and hills and val- leys Catch the|strain; Worlds flung|
w: per- fect touch of love, no Blem- ish|there; Ev- ery|
 [DF]>[^C=E] [DF]>[_EG] [DF]2 [Fd]>[^F^c] | [GB]>[^FA] [GB]>[Gc] [GB]2 [=FA]>[EG] | %7
w: love Him shall re- joice When they|hear His bless- èd voice, And with|
w: in- to space a- far, Sun and|moon and glit- tering star, Ech- o|
w: mys- ter- y made plain, Ev- ery|loss my rich- est gain, Full- est|
 [DF]>[EF] [FB]>[Fc] [Fd]>[Ge] [Fd]>[Ec] | [DB]6 ||"^Refrain" [B,D]>[CE] | [DF]2 [Fd]4 [EA]>[FB] | %11
w: Him shall reign thro’ ag- es With- out|end.|||
w: back in joy- ous rap- ture The re-|frain.|I am|wait- ing, I am|
w: joy and match- less splen- dor Ev- ery-|where.|||
 [Ec]2 [EG]4 [=Ec]>[EB] | [EA]<[EA] [EA]>[EG] [EF]<[EG] [DF]>[CE] | [B,D]6 [B,D]>[CE] | %14
w: |||
w: wait- ing, I am|wait- ing for the com- ing Of the|King; For that|
w: |||
 [DF]>[Fd] [Fd]>[Ec] [DB]2 F>F | [EG]>[Ge] [Ge]>[Gd] [Gc]2 [Gc]>[GB] | %16
w: ||
w: great and glor- ious day When the|clouds are rolled a- way, I am|
w: ||
 [FA]<[FA] [FA]>[FG] F<[Fe] [Fd]>[Ec] | B6 |] %18
w: ||
w: wai- ting for the com- ing Of the|King.|
w: ||
V:2
 x2 | x8 | x8 | x8 | x8 | x8 | x8 | x8 | x6 || x2 | x8 | x8 | x8 | x8 | x6 F>F | x8 | x4 F/ x7/2 | %17
 (D<DE>E D2) |] %18
V:3
 [B,,F,]>[B,,F,] | [B,,B,]>[B,,B,] [B,,B,]>[B,,B,] [B,,B,]2 [B,,B,]>[D,B,] | %2
w: ||
 [E,B,]>[E,B,] [E,E]>[E,E] [E,E]2 [E,E]>[E,B,] | %3
w: |
 [B,,B,]>[B,,B,] [B,,B,]>[D,B,] [C,G,]>[B,C] [A,C]>[G,C] | [F,A,]6 [B,,F,]>[B,,F,] | %5
w: ||
 [B,,B,]>[B,,B,] [B,,B,]>[B,,B,] [B,,B,]2 [B,,B,]>[D,B,] | %6
w: |
 [E,B,]>[E,B,] [E,E]>[E,E] [E,E]2 [E,E]>[E,B,] | %7
w: |
 [F,B,]>[E,A,] [D,B,]>[F,A,] B,>[E,B,] [F,B,]>[F,A,] | [B,,F,]6 || [B,,F,]>[B,,F,] | %10
w: * * * * I * * *||am wait-|
 [B,,B,]<[B,,B,] [B,,B,]<[B,,B,] [B,,B,]<[B,,B,] [C,F,]>[D,B,] | %11
w: ing, I am wait- ing, I am wait-|
 [E,G,]<[E,G,] [E,C]>[E,C] [E,C]<[E,C] [C,C]>[C,C] | %12
w: ing, I am wait- ing, for * *|
 [F,C]<[F,C] [F,C]>[F,B,] [F,A,]<[F,A,] [F,B,]>F, | F,6 [B,,F,]>[B,,F,] | %14
w: * * * * * * the com-|ing * *|
 [B,,B,]>[B,,B,] [F,A,]>[^F,A,] [G,B,]2 [D,B,]>[D,B,] | %15
w: |
 [E,B,]>[E,B,] [C,C]>[D,=B,] [E,C]2 [=E,C]>[E,C] | %16
w: |
 [F,C]<[F,C] [F,C]>[F,B,] [F,A,]<[F,A,] [F,B,]>F, | [B,,F,]<[B,,F,] [B,,G,]>[B,,G,] [B,,F,]2 |] %18
w: * * * * * * of the|King; for the com- ing|
V:4
 x2 | x8 | x8 | x8 | x8 | x8 | x8 | x4 B,3/2 x5/2 | x6 || x2 | x8 | x8 | x15/2 F,/ | %13
 B,,<B,, D,>F, B,,2 x2 | x8 | x8 | x15/2 F,/ | x6 |] %18

